X: 26939
T: Miss Bruce
R: jig
M: 6/8
K: Dmajor
|:Fdd dcB|Ace gfe|~f3 gfd|cee efg|
afd ~d3|Bdg b2g|~f3 gec|1 edc dAG:|2 edc dfg||
|:afd dcd|AFA DFA|~f3 gfd|cee efg|
afd ~d3|Beg b2g|~f3 gec|1 edc dfg:|2 edc dAG||

